!!!COM: Bach, Johann Sebastian
!!!OPR: Joh. Seb. Bachs vierstimmige Choralgesänge
!!!XEN: Four-part Chorales
!!!OTL: 97. Ich danke dir, o Gott in deinem Throne
!!!SCT: BWV 350
!!!SCA: Thematisch-systematisches Verzeichnis der musikalischen Werke Johann Sebastian Bach: Bach-Werke-Verzeichnis (Schmieder)
!!!YOR: Bach Gesellschaft Edition xxxix
!!!ENC: Steven Rasmussen
!!!CDT: 1685/3//-1750/7/28/
!!!OCY: Deutschland
!!!YEC: Copyright (c) 1994, 2000 Center for Computer Assisted Research in the Humanities
!!!YEM: Rights to all derivative editions reserved
!!!YEN: United States of America
**kern	**kern	**kern	**kern	**silbe
*I:[BASSO]	*I:[TENORE]	*I:[ALTO]	*I:[SOPRANO]	*I:[SOPRANO]
*clefF4	*clefGv2	*clefG2	*clefG2	*
*k[b-e-]	*k[b-e-]	*k[b-e-]	*k[b-e-]	*
*g:	*g:	*g:	*g:	*
*M4/4	*M4/4	*M4/4	*M4/4	*
8GGL	8B-L	4d	4g	Ich
8AAJ	8cJ	.	.	.
=1	=1	=1	=1	=1
4BB-	4d	8gL	4g	dan-
.	.	8fJ	.	.
4GG	4B-	8e-L	4g	-ke
.	.	8dJ	.	.
4AA	8AL	4c	8fL	dir,
.	8GJ	.	8e-J	.
4BB-	4F	8cL	4d	o
.	.	8B-J	.	.
=2	=2	=2	=2	=2
8BB-L	4B-	4d	4f	Gott
8AAJ	.	.	.	.
4GG	4B-	8e-L	4g	in
.	.	8dJ	.	.
8GGL	4c	4e-	4a	dei-
8FF#J	.	.	.	.
4GG	8cL	4d	4g	-nem
.	8B-J	.	.	.
=3	=3	=3	=3	=3
4C	[4A	4e-	4g	Thro-
4D	16ALL]	4d	4f#	.
.	16B-J	.	.	.
.	8cJ	.	.	.
4GG;	8cL	4d;	4g;	-ne,
.	8B-;J	.	.	.
4GG	4d	4g	4b-	durch
=4	=4	=4	=4	=4
4D	8.dL	8gL	4a	Je-
.	.	8f#J	.	.
.	16cJk	.	.	.
4E-	4B-	8gL	4g	-sum
.	.	8e-J	.	.
8AAL	8cL	4c	4f	Chri-
8FFJ	8AJ	.	.	.
4BB-	4F	8cL	4d	-stum,
.	.	16B-L	.	.
.	.	16cJJ	.	.
=5	=5	=5	=5	=5
4BB-	8B-L	8dL	4f	dei-
.	8AJ	8cJ	.	.
8E-L	4G	4B-	4g	-nem
8DJ	.	.	.	.
4.C	4c	8e-L	4a	lie-
.	.	8dJ	.	.
.	4B-	4en	4g	-ben
8C#	.	.	.	.
=6	=6	=6	=6	=6
2D	8B-L	2d	4g	Soh-
.	16AL	.	.	.
.	16GJ	.	.	.
.	16AL	.	4f#	.
.	16B-J	.	.	.
.	8cJ	.	.	.
4GG;	4B-;	4d;	4g;	-ne,
8GGL	8B-L	4g	4dd	dass
8AAJ	8cJ	.	.	.
=7	=7	=7	=7	=7
8BB-L	8dL	4g	4dd	du
8CJ	16cL	.	.	.
.	16B-JJ	.	.	.
4D	8AL	8gL	4dd	mich
.	16B-L	8f#J	.	.
.	16cJJ	.	.	.
4E-	4B-	4g	4g	hast
4En	4B-	4g	4cc	in
=8	=8	=8	=8	=8
4F#	4A	4d	4cc	die-
4G	8AL	4d	4b-	-ser
.	8GJ	.	.	.
4D	8GL	8dL	4a	Nacht
.	8F#J	8cJ	.	.
4E-	8GL	8B-L	4g	be-
.	8B-J	8dJ	.	.
=9	=9	=9	=9	=9
4AA	8AL	8cL	2f	-wah-
.	8GJ	8B-J	.	.
4FF	4A	4c	.	.
4BB-;	4F;	4B-;	4d;	-ret
8GGL	8B-L	4d	4g	vor
8AAJ	8cJ	.	.	.
=10	=10	=10	=10	=10
8BB-L	8dL	8dL	4g	Scha-
8CJ	16cL	8e-J	.	.
.	16B-JJ	.	.	.
4D	4A	8dL	4f#	-den
.	.	8cJ	.	.
4E-	4G	8B-L	4g	und
.	.	8cJ	.	.
8DL	4A	4d	4f#	vor
8CJ	.	.	.	.
=11	=11	=11	=11	=11
8BB-L	4G	4d	4g	man-
8CJ	.	.	.	.
8BB-L	4A	4c	4f#	-cher-
8AAJ	.	.	.	.
8GGL	4B-	4d	4g	-lei
8AAJ	.	.	.	.
8GGL	4A	4d	4a	Ge-
8FF#J	.	.	.	.
=12	=12	=12	=12	=12
8GGL	4A	2d	2b-	-fah-
8AA	.	.	.	.
8BB-	4G	.	.	.
8GGJ	.	.	.	.
4D;	4F#;	4d;	4a;	-ren,
4GG	4G	4d	4b-	und
=13	=13	=13	=13	=13
4D	8GL	8.dL	4a	bit-
.	8F#J	.	.	.
.	.	16cJk	.	.
4E-	8GL	4B-	4g	-te
.	8E-J	.	.	.
4AA	8CL	4c	4f	dich,
.	8FnJ	.	.	.
8BB-L	4F	4B-	8dL	wollst
8CJ	.	.	8e-J	.
=14	=14	=14	=14	=14
4D	8FL	8AL	4f	mich
.	16GL	16B-L	.	.
.	16AJJ	16cJJ	.	.
4D	4B-	16dLL	4f	an
.	.	16e-J	.	.
.	.	8fJ	.	.
4E-	4B-	8fL	4g	die-
.	.	8e-J	.	.
4BB-	8.B-L	8e-L	4f	-sem
.	.	8dJ	.	.
.	16AJk	.	.	.
=15	=15	=15	=15	=15
8CL	2G	8dL	2e-	Ta-
8D	.	16cL	.	.
.	.	16BnJJ	.	.
8E-	.	4c	.	.
8CJ	.	.	.	.
4G;	4G;	4B;	4d;	-ge
4GG	4B-	4g	4dd	be-
=16	=16	=16	=16	=16
4AA	4c	8gL	4cc	-hÃ¼-
.	.	8f#J	.	.
8BB-L	4d	4g	4b-	-ten
8CJ	.	.	.	.
4.D	4d	8gL	4a	auch
.	.	16f#L	.	.
.	.	16enJJ	.	.
.	4A	4d	4f#	vor
8C	.	.	.	.
=17	=17	=17	=17	=17
4BB-	4B-	8dL	4g	SÃ¼n-
.	.	8enJ	.	.
8AAL	8cL	8f#L	8aL	-den,
8GGJ	8dJ	8gJ	8b-J	.
4FF#	8e-L	4.a	4cc	Schand'
.	8dJ	.	.	.
4GG	4d	.	4b-	und
.	.	8g	.	.
=18	=18	=18	=18	=18
4C	8e-L	8gL	2a	Pla-
.	8c	16f#L	.	.
.	.	16enJJ	.	.
4D	8A	4f#	.	.
.	8dJ	.	.	.
4GG;	4Bn;	4d;	4g;	-ge.
==|!	==|!	==|!	==|!	==|!
*-	*-	*-	*-	*-
!!!RWG: Key is interpreted using the Humdrum key tool.
!!!URL-pdf: https://s9.imslp.org/files/imglnks/usimg/6/6b/IMSLP24489-PMLP09471-CCARH_Bach_Chorales.pdf#page=68 Musedata edition
!!!URL-pdf: https://s9.imslp.org/files/imglnks/usimg/7/7a/IMSLP04155-Bach_-_BGA_253-438.pdf#page=52 	Bach-Gesellschaft Ausgabe, Band 39 (pp.175-276) Leipzig: Breitkopf und Härtel, 1892. Plate B.W. XXXIX.
!!!END: 1994/06/27
!!!EMD: Converted from MuseData to Humdrum Dec 19, 2000, by Andreas Kornstaedt using muse2kern.
!!!EED: Craig Stuart Sapp
!!!EEV: 2024/03/31
!!!filter-keyboard: satb2gs
